src/assets/img/providers-white/charismatic.svg

<svg width="128" height="26" viewBox="0 0 128 26" fill="none" xmlns="http://www.w3.org/2000/svg">
<path fill-rule="evenodd" clip-rule="evenodd" d="M22.0454 5.54822C19.2616 3.03751 16.0129 1.91085 12.2994 2.16822C12.2626 2.17347 12.2442 2.16034 12.2442 2.12883V1.92398C12.239 1.84519 12.2757 1.80317 12.3545 1.79792C16.2414 1.47751 19.603 2.60418 22.4394 5.17792C22.6655 5.38382 22.8396 5.62589 23.0143 5.86878C23.2474 6.19284 23.4815 6.51838 23.8418 6.76155C24.1464 6.96115 24.2305 6.89287 24.0939 6.5567C23.7578 5.73206 23.3034 5.02297 22.7309 4.42943C17.2788 -1.25905 7.90301 -0.408143 3.28604 5.84761C0.0242218 10.2597 0.0872521 16.744 3.64846 21.0222C8.91937 27.3567 19.9418 27.2543 24.2515 19.4622C24.3198 19.3361 24.2935 19.2363 24.1727 19.1628L24.0073 19.0603C23.981 19.0446 23.9574 19.0498 23.9363 19.0761C21.6279 22.2828 17.6491 24.1894 13.7727 23.1731C9.12422 21.9545 6.4218 18.8502 5.66543 13.8603C5.64968 13.7658 5.68907 13.7054 5.78362 13.6791L5.98059 13.624C5.98838 13.6216 5.99661 13.621 6.00467 13.6222C6.01273 13.6234 6.02043 13.6263 6.02721 13.6309C6.03399 13.6354 6.03969 13.6413 6.04388 13.6483C6.04808 13.6553 6.05068 13.6631 6.05149 13.6712C7.2018 20.0058 13.0951 24.0555 19.1776 21.5343C20.5117 20.9775 20.4644 20.8068 19.0357 21.0222C14.2139 21.7549 10.4479 21.0222 8.14725 16.8622C5.99634 12.9543 7.19392 8.77852 10.7945 6.42277C11.2689 6.11403 11.7919 5.90606 12.3101 5.69996C12.8764 5.47477 13.437 5.25183 13.9224 4.90216C14.2848 4.64479 14.2454 4.53711 13.8042 4.57913C5.13756 5.38277 2.08058 15.6409 8.55695 21.2349C8.5622 21.2401 8.5622 21.2428 8.55695 21.2428L8.43089 21.4003C8.35735 21.4896 8.27331 21.4975 8.17877 21.424C2.71877 17.2246 2.30119 9.74761 7.91877 5.43792C12.1681 2.1761 16.8087 2.38357 21.8406 6.06034C21.8774 6.0866 21.9115 6.08135 21.943 6.04458L22.077 5.87125C22.1132 5.82454 22.13 5.76546 22.1242 5.70567C22.1183 5.64588 22.0902 5.5897 22.0454 5.54822ZM9.51816 23.4252C8.81958 22.9104 8.86422 22.8343 9.6521 23.1967C10.5555 23.6169 11.4353 23.8874 12.2915 24.0082C12.3545 24.0187 12.3913 24.0555 12.4018 24.1185C12.4071 24.1448 12.4044 24.171 12.3939 24.1973C12.3834 24.2393 12.3572 24.2603 12.3151 24.2603C11.2961 24.3234 10.3638 24.045 9.51816 23.4252Z" fill="white"/>
<path d="M9.99876 14.821C8.54906 8.52583 16.0575 4.25553 20.6588 9.0931C20.7375 9.17189 20.8111 9.16926 20.8794 9.08522L21.0291 8.90401C21.1078 8.80421 21.1052 8.70967 21.0212 8.62037C19.1618 6.62441 16.9006 5.81815 14.2375 6.20159C5.57088 7.44643 6.81573 21.2737 16.1915 20.2179C18.6497 19.9448 20.4224 18.7788 21.5097 16.7198C21.5307 16.683 21.5254 16.6489 21.4939 16.6173L21.3363 16.4913C21.3101 16.4703 21.2864 16.4729 21.2654 16.4992C18.7232 19.4668 15.9525 20.1418 12.9533 18.524C11.3513 17.6626 10.3664 16.4283 9.99876 14.821Z" fill="white"/>
<path d="M121.586 19.4932C123.251 20.05 124.9 19.7059 126.534 18.4611C126.818 18.2405 126.986 18.3088 127.038 18.6659C127.148 19.4459 126.755 20.1077 125.99 20.2968C125.659 20.3777 125.349 20.4738 125.049 20.5673C124.206 20.829 123.431 21.0698 122.421 20.8956C118.487 20.2128 116.386 17.9962 116.118 14.2459C115.708 8.43926 120.885 5.99684 125.825 7.35199C126.187 7.45179 126.479 7.65138 126.699 7.95078C126.941 8.28168 127.046 8.65461 127.015 9.06956C126.999 9.25865 126.912 9.30067 126.755 9.19562C124.044 7.32835 120.522 7.6829 118.537 10.3065C115.976 13.6944 117.67 18.1774 121.586 19.4932Z" fill="white"/>
<path d="M27.7497 20.2186L27.7182 14.4356C27.7182 14.3666 27.7455 14.3005 27.7943 14.2517C27.8431 14.203 27.9092 14.1756 27.9782 14.1756L35.5103 14.1283C35.5444 14.1283 35.5782 14.135 35.6098 14.1481C35.6413 14.1612 35.67 14.1803 35.6941 14.2045C35.7183 14.2286 35.7374 14.2573 35.7505 14.2888C35.7635 14.3204 35.7703 14.3542 35.7703 14.3883L35.8254 20.1635C35.8253 20.2298 35.8505 20.2936 35.8959 20.342C35.9413 20.3903 36.0035 20.4195 36.0697 20.4235L36.8418 20.4629C36.8772 20.465 36.9128 20.4599 36.9461 20.4478C36.9795 20.4357 37.0101 20.4169 37.0359 20.3925C37.0618 20.3682 37.0823 20.3388 37.0964 20.3061C37.1104 20.2735 37.1176 20.2384 37.1175 20.2029L37.1097 7.43923C37.1097 7.37028 37.0823 7.30414 37.0335 7.25538C36.9848 7.20662 36.9186 7.17923 36.8497 7.17923H36.1012C36.0322 7.17923 35.9661 7.20662 35.9173 7.25538C35.8686 7.30414 35.8412 7.37028 35.8412 7.43923L35.7939 13.1041C35.7939 13.173 35.7665 13.2392 35.7178 13.2879C35.669 13.3367 35.6029 13.3641 35.5339 13.3641L27.923 13.4192C27.8889 13.4192 27.8551 13.4125 27.8235 13.3994C27.792 13.3864 27.7633 13.3672 27.7392 13.3431C27.715 13.3189 27.6959 13.2903 27.6828 13.2587C27.6697 13.2272 27.663 13.1934 27.663 13.1592L27.6788 7.42347C27.6788 7.38796 27.6716 7.35282 27.6576 7.3202C27.6435 7.28758 27.623 7.25818 27.5971 7.23382C27.5713 7.20946 27.5407 7.19065 27.5073 7.17855C27.474 7.16645 27.4385 7.16132 27.403 7.16347L26.5994 7.20287C26.5345 7.20678 26.4735 7.23483 26.4283 7.28149C26.3831 7.32815 26.357 7.39005 26.3551 7.45499L26.3236 20.2029C26.3236 20.2705 26.3499 20.3354 26.397 20.384C26.444 20.4325 26.5082 20.4608 26.5757 20.4629L27.4818 20.4786C27.5166 20.4797 27.5513 20.4737 27.5837 20.4611C27.6162 20.4485 27.6458 20.4296 27.6708 20.4053C27.6957 20.3811 27.7156 20.352 27.7292 20.32C27.7427 20.2879 27.7497 20.2534 27.7497 20.2186Z" fill="white"/>
<path fill-rule="evenodd" clip-rule="evenodd" d="M46.706 16.2791H43.0582C42.6041 16.2794 42.1648 16.4392 41.8176 16.7303C41.4703 17.0213 41.2372 17.4251 41.1594 17.8706C41.0123 18.732 40.6998 19.4989 40.2218 20.1712C40.0642 20.3865 39.8462 20.5073 39.5679 20.5336C39.4365 20.5441 39.3236 20.51 39.2291 20.4312C39.0505 20.2789 39.0032 20.095 39.0872 19.8797L43.4442 8.4633C44.1953 6.49361 44.9464 6.49361 45.6976 8.4633L50.1491 20.0924C50.1672 20.1422 50.1722 20.1958 50.1635 20.2481C50.1548 20.3004 50.1328 20.3496 50.0995 20.3908C50.0662 20.432 50.0227 20.464 49.9735 20.4835C49.9242 20.503 49.8707 20.5094 49.8182 20.5021L49.3297 20.4233C49.0303 20.376 48.8228 20.2106 48.7073 19.9269L47.4545 16.7912C47.318 16.455 47.0685 16.2843 46.706 16.2791ZM42.3727 14.6797C42.3558 14.7218 42.3496 14.7675 42.3547 14.8126C42.3597 14.8577 42.3758 14.9009 42.4015 14.9383C42.4272 14.9758 42.4618 15.0062 42.5021 15.0271C42.5424 15.0479 42.5873 15.0585 42.6327 15.0579L46.446 15.1051C46.4905 15.1053 46.5343 15.0947 46.5737 15.0743C46.6132 15.0538 46.6471 15.0242 46.6727 14.9878C46.6982 14.9515 46.7146 14.9095 46.7204 14.8654C46.7262 14.8214 46.7213 14.7766 46.706 14.7348L44.8624 9.6924C44.8427 9.64088 44.8081 9.59644 44.7629 9.56482C44.7178 9.5332 44.6641 9.51584 44.609 9.51499C44.5539 9.51414 44.4998 9.52984 44.4536 9.56006C44.4075 9.59028 44.3715 9.63363 44.3503 9.68452L42.3727 14.6797Z" fill="white"/>
<path fill-rule="evenodd" clip-rule="evenodd" d="M59.6903 17.7362C59.3226 16.5439 58.6582 15.5538 57.6969 14.7659C57.4606 14.5768 57.4711 14.3956 57.7285 14.2223C59.5721 12.9932 60.3048 10.992 59.32 9.13256C58.0121 6.67438 55.3491 6.93438 53.0406 7.16287C52.4628 7.22064 52.1739 7.54105 52.1739 8.12408L52.1897 20.0368C52.1897 20.2889 52.3157 20.4071 52.5679 20.3914L52.8357 20.3835C52.8778 20.3835 52.8988 20.3598 52.8988 20.3126L53.0879 15.0574C53.0984 14.7685 53.2507 14.6215 53.5448 14.6162C57.0588 14.6004 58.3588 17.161 59.3042 20.0604C59.3492 20.1963 59.4386 20.3133 59.5584 20.3932C59.6782 20.473 59.8216 20.5112 59.966 20.5017L60.2733 20.4859C60.3197 20.4836 60.3648 20.4699 60.4048 20.4461C60.4447 20.4222 60.4785 20.3889 60.5031 20.3488C60.5278 20.3087 60.5427 20.2631 60.5466 20.2156C60.5504 20.1682 60.5432 20.1204 60.5254 20.0762C60.2155 19.3041 59.9371 18.5241 59.6903 17.7362ZM53.0091 12.615V9.19559C53.008 9.07247 53.0312 8.95035 53.0774 8.83619C53.1236 8.72204 53.1918 8.61811 53.2781 8.53031C53.3644 8.44252 53.4672 8.37259 53.5806 8.32451C53.6939 8.27644 53.8156 8.25117 53.9388 8.25014H55.0969C55.5502 8.24902 55.9992 8.31395 56.4184 8.44124C56.8375 8.56853 57.2186 8.75568 57.5397 8.992C57.8609 9.22832 58.116 9.50918 58.2903 9.81854C58.4646 10.1279 58.5548 10.4597 58.5557 10.795V10.9841C58.5576 11.661 58.1959 12.311 57.5502 12.7912C56.9046 13.2714 56.0278 13.5424 55.1127 13.5447H53.9545C53.8314 13.5457 53.7093 13.5225 53.5951 13.4763C53.481 13.4302 53.377 13.362 53.2892 13.2757C53.2014 13.1893 53.1315 13.0865 53.0834 12.9732C53.0354 12.8598 53.0101 12.7381 53.0091 12.615Z" fill="white"/>
<path d="M63.606 7.17069H62.9127C62.743 7.17069 62.6054 7.30826 62.6054 7.47796V20.1628C62.6054 20.3325 62.743 20.4701 62.9127 20.4701H63.606C63.7757 20.4701 63.9133 20.3325 63.9133 20.1628V7.47796C63.9133 7.30826 63.7757 7.17069 63.606 7.17069Z" fill="white"/>
<path d="M69.1982 13.9535C70.5936 14.8016 71.9276 15.6124 72.5091 17.3505C72.5826 17.5763 72.5563 17.7917 72.4303 17.9966C70.886 20.4784 68.7194 20.0214 66.7733 18.5166C66.4844 18.2907 66.3452 18.3616 66.3557 18.7293L66.3872 19.8244C66.3978 20.1501 66.5632 20.3208 66.8836 20.3365C67.5822 20.3786 68.2388 20.565 68.8533 20.8959C69.179 21.0693 69.5177 21.0982 69.8697 20.9826C70.1123 20.9037 70.3568 20.8334 70.5984 20.764C71.9732 20.3689 73.2542 20.0008 73.5491 18.225C74.0643 15.1927 71.0111 13.4254 68.7121 12.0947C68.5502 12.001 68.3917 11.9093 68.2388 11.8196C68.0129 11.6883 67.8711 11.4966 67.8133 11.2444C67.4194 9.63716 68.0523 8.54463 69.7121 7.96685C69.9905 7.87231 70.2662 7.88019 70.5394 7.99049L72.9424 8.94382C73.4466 9.14342 73.5963 8.9911 73.3915 8.48685L73.163 7.9117C72.9792 7.44948 72.6377 7.19736 72.1388 7.15534C71.083 7.06605 69.9747 7.05291 68.8139 7.11594C66.4345 7.24988 65.8909 9.74746 66.5763 11.5675C66.8127 12.1873 67.38 12.7913 68.2782 13.3796C68.5829 13.5794 68.8921 13.7674 69.1982 13.9535Z" fill="white"/>
<path d="M77.197 11.6615L77.2206 20.2258C77.2206 20.2926 77.194 20.3568 77.1467 20.4041C77.0995 20.4513 77.0353 20.4779 76.9685 20.4779L76.283 20.4621C76.0887 20.4569 75.9941 20.3571 75.9994 20.1627L76.0151 7.67487C76.0149 7.5593 76.0472 7.44576 76.1085 7.34697C76.1697 7.24818 76.2574 7.16802 76.3618 7.11547C76.7505 6.92638 77.0394 7.02618 77.2285 7.41487C78.9408 10.9761 80.619 14.6003 82.263 18.2876C82.4311 18.6605 82.5992 18.6632 82.7673 18.2955L87.0218 9.0379C88.3454 6.15426 89.0099 6.29871 89.0151 9.47123L89.0309 20.2258C89.0309 20.3939 88.9468 20.4753 88.7788 20.47L88.046 20.4543C87.8832 20.449 87.8018 20.365 87.8018 20.2021L87.8412 12.0082C87.8464 10.7161 87.5838 10.6583 87.0533 11.8349L83.366 20.0288C83.2942 20.1903 83.1771 20.3276 83.0289 20.4239C82.8807 20.5203 82.7077 20.5715 82.5309 20.5715C82.3541 20.5715 82.1811 20.5203 82.0329 20.4239C81.8847 20.3276 81.7675 20.1903 81.6957 20.0288L77.843 11.5197C77.4071 10.5585 77.1917 10.6058 77.197 11.6615Z" fill="white"/>
<path fill-rule="evenodd" clip-rule="evenodd" d="M94.68 16.2713L98.6666 16.2871C98.8196 16.2867 98.9693 16.3333 99.0958 16.4205C99.2224 16.5077 99.32 16.6315 99.3757 16.7755L100.802 20.4077C100.821 20.4558 100.852 20.4985 100.891 20.532C100.931 20.5655 100.978 20.5887 101.028 20.5996C101.079 20.6105 101.132 20.6088 101.181 20.5945C101.231 20.5803 101.277 20.554 101.314 20.518L101.495 20.3525C101.635 20.2224 101.732 20.053 101.774 19.8662C101.816 19.6794 101.801 19.4838 101.731 19.3046L97.5872 8.47919C96.8414 6.52525 96.0929 6.52525 95.3418 8.47919L90.8903 20.0689C90.801 20.3052 90.8824 20.4339 91.1345 20.4549L91.7175 20.4943C91.9644 20.5101 92.1351 20.4024 92.2297 20.1713L93.4115 17.1301C93.5113 16.8765 93.6858 16.6589 93.9121 16.5057C94.1384 16.3525 94.406 16.2708 94.68 16.2713ZM96.7915 9.80282L98.1545 13.6004C98.2385 13.8368 98.3541 14.06 98.5012 14.2701L98.6509 14.4907C98.8872 14.8374 98.7927 15.0107 98.3672 15.0107H94.7194C94.662 15.0102 94.6055 14.9961 94.5548 14.9696C94.504 14.943 94.4605 14.9049 94.4279 14.8584C94.3954 14.8119 94.3748 14.7584 94.3679 14.7026C94.361 14.6468 94.3681 14.5903 94.3885 14.538L96.2006 9.79494C96.2238 9.73492 96.2647 9.68342 96.3181 9.64738C96.3714 9.61135 96.4344 9.59249 96.4988 9.59335C96.5631 9.5942 96.6256 9.61474 96.678 9.65218C96.7303 9.68963 96.7699 9.7422 96.7915 9.80282Z" fill="white"/>
<path d="M105.679 8.24273L102.543 8.18758C102.514 8.18617 102.486 8.17749 102.461 8.16235C102.436 8.14721 102.416 8.12608 102.401 8.10091L101.976 7.37606C101.961 7.34974 101.953 7.31989 101.953 7.2895C101.952 7.25911 101.96 7.22925 101.976 7.20291C101.991 7.17657 102.013 7.15468 102.039 7.13944C102.065 7.1242 102.095 7.11614 102.125 7.11606L110.973 7.15546C110.997 7.15536 111.021 7.1603 111.043 7.16998C111.066 7.17966 111.085 7.19386 111.102 7.21166C111.118 7.22947 111.131 7.25048 111.138 7.27337C111.146 7.29625 111.149 7.3205 111.147 7.34455L111.107 7.81728C111.103 7.85914 111.085 7.8982 111.054 7.92718C111.024 7.95617 110.984 7.97311 110.942 7.97485L107.373 8.24273C107.33 8.24667 107.289 8.26666 107.26 8.29875C107.231 8.33084 107.215 8.3727 107.215 8.41606L107.247 20.3603C107.247 20.3845 107.242 20.4084 107.232 20.4305C107.222 20.4526 107.208 20.4725 107.19 20.4888C107.173 20.5051 107.152 20.5175 107.129 20.5253C107.106 20.533 107.082 20.5358 107.058 20.5336L106.033 20.447C105.99 20.443 105.95 20.423 105.921 20.391C105.892 20.3589 105.876 20.317 105.876 20.2736L105.852 8.41606C105.852 8.37009 105.834 8.326 105.801 8.2935C105.769 8.26099 105.725 8.24273 105.679 8.24273Z" fill="white"/>
<path d="M113.188 7.12398L113.219 7.12387C113.428 7.12314 113.598 7.29186 113.599 7.50072L113.642 20.0437C113.643 20.2525 113.474 20.4224 113.266 20.4232L113.234 20.4233C113.025 20.424 112.855 20.2553 112.855 20.0464L112.811 7.50347C112.81 7.29461 112.979 7.1247 113.188 7.12398Z" fill="white"/>
</svg>

<svg width="128" height="26" fill="none" xmlns="http://www.w3.org/2000/svg"><path fill-rule="evenodd" clip-rule="evenodd" d="M22.045 5.548c-2.783-2.51-6.032-3.637-9.746-3.38-.036.005-.055-.008-.055-.04v-.204c-.005-.079.032-.12.11-.126 3.887-.32 7.249.806 10.085 3.38.227.206.4.448.575.69.233.325.468.65.828.894.304.2.389.13.252-.205a6.63 6.63 0 0 0-1.363-2.128C17.279-1.259 7.903-.408 3.286 5.848.024 10.26.087 16.744 3.648 21.022c5.271 6.335 16.294 6.232 20.604-1.56.068-.126.042-.226-.08-.3l-.165-.102c-.026-.015-.05-.01-.07.016-2.31 3.207-6.288 5.113-10.164 4.097-4.649-1.218-7.351-4.323-8.108-9.313-.015-.094.024-.155.119-.18l.197-.056a.055.055 0 0 1 .046.007.054.054 0 0 1 .024.04c1.15 6.335 7.044 10.384 13.127 7.863 1.334-.556 1.286-.727-.142-.512-4.822.733-8.588 0-10.889-4.16-2.15-3.908-.953-8.083 2.647-10.44.475-.308.998-.516 1.516-.722.566-.225 1.127-.448 1.612-.798.363-.257.323-.365-.118-.323-8.666.804-11.723 11.062-5.247 16.656.005.005.005.008 0 .008l-.126.157c-.074.09-.158.098-.252.024-5.46-4.2-5.878-11.676-.26-15.986 4.25-3.262 8.89-3.054 13.922.622.036.027.07.021.102-.015l.134-.174a.233.233 0 0 0 .047-.165.248.248 0 0 0-.079-.158ZM9.518 23.425c-.698-.515-.654-.59.134-.228.904.42 1.783.69 2.64.811.063.01.1.047.11.11a.136.136 0 0 1-.008.08c-.01.041-.037.062-.079.062-1.019.063-1.951-.215-2.797-.835Z" fill="#fff"/><path d="M9.999 14.821c-1.45-6.295 6.059-10.565 10.66-5.728.079.079.152.076.22-.008l.15-.181c.079-.1.076-.194-.008-.284-1.86-1.996-4.12-2.802-6.784-2.418-8.666 1.244-7.421 15.072 1.955 14.016 2.458-.273 4.23-1.44 5.318-3.498.02-.037.015-.071-.016-.103l-.158-.126c-.026-.02-.05-.018-.07.008-2.543 2.968-5.313 3.643-8.313 2.025-1.602-.861-2.587-2.096-2.954-3.703ZM121.586 19.493c1.665.557 3.314.213 4.948-1.032.284-.22.452-.152.504.205.11.78-.283 1.442-1.048 1.63-.331.082-.641.178-.941.271-.843.262-1.618.503-2.628.329-3.934-.683-6.035-2.9-6.303-6.65-.41-5.807 4.767-8.25 9.707-6.894.362.1.654.3.874.599.242.33.347.704.316 1.119-.016.189-.103.23-.26.126-2.711-1.868-6.233-1.513-8.218 1.11-2.561 3.388-.867 7.871 3.049 9.187ZM27.75 20.219l-.032-5.783a.26.26 0 0 1 .26-.26l7.532-.048a.26.26 0 0 1 .26.26l.055 5.775a.26.26 0 0 0 .245.26l.772.04a.26.26 0 0 0 .276-.26L37.11 7.439a.26.26 0 0 0-.26-.26H36.1a.26.26 0 0 0-.26.26l-.047 5.665a.26.26 0 0 1-.26.26l-7.611.055a.26.26 0 0 1-.26-.26l.016-5.736a.262.262 0 0 0-.172-.244.26.26 0 0 0-.104-.016l-.804.04a.26.26 0 0 0-.244.252l-.031 12.748a.26.26 0 0 0 .252.26l.906.016a.259.259 0 0 0 .268-.26Z" fill="#fff"/><path fill-rule="evenodd" clip-rule="evenodd" d="M46.706 16.28h-3.648c-.454 0-.893.16-1.24.45-.348.291-.58.695-.659 1.14a5.515 5.515 0 0 1-.937 2.301.874.874 0 0 1-.654.363.452.452 0 0 1-.339-.103c-.178-.152-.226-.336-.142-.551l4.357-11.417c.751-1.97 1.502-1.97 2.254 0l4.451 11.63a.308.308 0 0 1-.33.41l-.49-.08a.762.762 0 0 1-.622-.496l-1.252-3.136c-.137-.336-.386-.507-.749-.512Zm-4.333-1.6a.274.274 0 0 0 .13.347c.04.02.084.032.13.03l3.813.048a.275.275 0 0 0 .26-.37l-1.844-5.043a.276.276 0 0 0-.512-.007l-1.977 4.995ZM59.69 17.736a6.073 6.073 0 0 0-1.993-2.97c-.236-.19-.226-.37.031-.544 1.844-1.229 2.577-3.23 1.592-5.09-1.308-2.458-3.97-2.198-6.28-1.97-.577.059-.866.38-.866.962l.016 11.913c0 .252.126.37.378.354l.268-.007c.042 0 .063-.024.063-.071l.189-5.256c.01-.289.163-.436.457-.44 3.514-.017 4.814 2.544 5.76 5.443a.643.643 0 0 0 .253.333c.12.08.264.118.408.109l.307-.016a.285.285 0 0 0 .23-.137.3.3 0 0 0 .022-.273 31.796 31.796 0 0 1-.835-2.34Zm-6.68-5.121v-3.42a.936.936 0 0 1 .929-.945h1.158c.453-.001.902.064 1.321.191.42.128.8.315 1.122.551.32.236.576.517.75.827.175.309.265.64.266.976v.19c.002.676-.36 1.326-1.006 1.806-.645.48-1.522.751-2.437.754h-1.158a.938.938 0 0 1-.946-.93Z" fill="#fff"/><path d="M63.606 7.17h-.693a.307.307 0 0 0-.308.308v12.685c0 .17.138.307.308.307h.693c.17 0 .307-.137.307-.307V7.478a.307.307 0 0 0-.307-.307ZM69.198 13.954c1.396.848 2.73 1.658 3.311 3.396a.742.742 0 0 1-.079.647c-1.544 2.481-3.71 2.024-5.657.52-.289-.226-.428-.155-.417.212l.031 1.095c.01.326.176.497.497.512a4.703 4.703 0 0 1 1.97.56 1.25 1.25 0 0 0 1.016.087c.242-.08.487-.15.728-.219 1.375-.395 2.656-.763 2.951-2.539.515-3.032-2.538-4.8-4.837-6.13l-.473-.275a.863.863 0 0 1-.426-.576c-.394-1.607.24-2.7 1.9-3.277.278-.095.553-.087.826.023l2.403.954c.505.2.654.047.45-.457l-.229-.575c-.184-.463-.525-.715-1.024-.757a24.017 24.017 0 0 0-3.325-.04c-2.38.135-2.923 2.632-2.238 4.453.237.62.804 1.223 1.702 1.812.305.2.614.387.92.573ZM77.197 11.662l.024 8.564a.252.252 0 0 1-.252.252l-.686-.016c-.194-.005-.289-.105-.284-.3l.016-12.487a.62.62 0 0 1 .347-.56c.389-.189.677-.089.867.3a416.312 416.312 0 0 1 5.034 10.873c.168.372.336.375.504.008l4.255-9.258c1.323-2.884 1.988-2.74 1.993.433l.016 10.755c0 .168-.084.25-.252.244l-.733-.016c-.163-.005-.244-.089-.244-.252l.04-8.194c.004-1.292-.258-1.35-.789-.173l-3.687 8.194a.914.914 0 0 1-1.67 0l-3.853-8.51c-.436-.96-.651-.913-.646.143Z" fill="#fff"/><path fill-rule="evenodd" clip-rule="evenodd" d="m94.68 16.271 3.987.016a.767.767 0 0 1 .71.488l1.425 3.633a.32.32 0 0 0 .226.192.314.314 0 0 0 .286-.082l.181-.166c.14-.13.237-.299.279-.486a.963.963 0 0 0-.043-.561L97.587 8.479c-.746-1.954-1.494-1.954-2.245 0L90.89 20.07c-.089.236-.008.365.245.386l.582.04c.247.015.418-.093.513-.324l1.181-3.04a1.352 1.352 0 0 1 1.269-.86Zm2.111-6.468 1.364 3.797c.084.237.2.46.346.67l.15.22c.236.347.142.52-.284.52H94.72a.362.362 0 0 1-.291-.152.346.346 0 0 1-.04-.32l1.813-4.743a.315.315 0 0 1 .59.008Z" fill="#fff"/><path d="m105.679 8.243-3.136-.055a.174.174 0 0 1-.142-.087l-.425-.725a.175.175 0 0 1 .063-.237.172.172 0 0 1 .086-.023l8.848.04a.173.173 0 0 1 .165.117.172.172 0 0 1 .009.072l-.04.472a.171.171 0 0 1-.165.158l-3.569.268a.175.175 0 0 0-.158.173l.032 11.944a.17.17 0 0 1-.057.129.173.173 0 0 1-.132.045l-1.025-.087a.173.173 0 0 1-.157-.173l-.024-11.858a.171.171 0 0 0-.051-.123.171.171 0 0 0-.122-.05ZM113.188 7.124h.031c.209 0 .379.168.38.377l.043 12.543a.378.378 0 0 1-.376.38h-.032a.377.377 0 0 1-.379-.378l-.044-12.543a.378.378 0 0 1 .377-.379Z" fill="#fff"/></svg>
